X:132 
T:Miss Cox (reel) 
S:Jack Wade
F:file ID: cre.4/132miss_co
B:CRE4.128 (InÃÂÃÂÃÂÃÂ­on UÃÂÃÂÃÂÃÂ­ Choiligh)
N:A short coda has been added to the audio file.
%Q:180
L:1/8
M:4/4
R:reel
K:G
D|G2BG EGDF|GABd gedB|GABG EGD2|BGAF GFED|
G2BG EGDF|GABd gedB|G2BG EGDG|(3BAG AF GFE:|
dGG2 dGBG|d2BG AGED|d2BG dGBG|Bdef gfge|
d2BG dGBG|d2BG AGEG|DEGA Bdge|dBAB G3:|

%%%

